X:208
T:Janice
C:David Grisman
N:From The Cd "Hot Dawg" Transcribed By Mike Stangeland 
L:1/8
Q:1/4=250
M:4/4
K:D
z8 | EF GA Bc de | f=f e"F#7"c z4 | "Em7"B^A =AG EG "A7"E2 | z8 |: "Dmaj7"c2 Ac2A2D | 
FG FG FD z2 | "Ebmaj7"^D=F G6 | z8 | "Dmaj7"c2 Ac2A2D | FG FG FD z2 | "Bb6"^A,=C D6 | 
"G7"z8 | "Dmaj7"c2 Ac2A2D | FG FG FD z2 | "Ebmaj7"^D=F G6 | z8 | "Fmaj7"=FG A6 | 
z8 | "G6"GA B6 | "A7"cB A6 :| {=c}"Bm7"^c3A zG {=F}^F2 | z8 | {c}"C6"d3B zA {F}G2 | 
z8 | {=c}"Bm7"^c3A zG {=F}^F2 | z8 | "Bb6"=FE D6 | d'8 | {=c}"Bm7"^c3A zG {=F}^F2 | 
z8 | "C6"AB AG z4 | z8 | "C#m7"EF GA Bc de | f=f e"F#7"c z4 | "Em7"B^A =AG EG "A7"E2 | 
z4 d'2 (3e'e'e' | (3"Dmaj7"c'c'c' (3c'c'c' (3c'c'c' (3c'c'c' | (3c'c'c' (3c'c'c' (3c'c'c' (3aaa | 
(3"Ebmaj7"ggg (3g=f^d (3=ddd (3ddd | (3ddd (3ddd (3e2d2 e2 | (3"Dmaj7"fff (3fff (3fff (3fff | 
(3fff (3fff (3fff (3AAA | "Bb6"(3^AAA (3AAA (3GGG (3GGG | "G7"(3DDD (3DDD "A7"(3B,B,B, (3B,B,B, | 
"Dmaj7"(3FFF (3FFF (3A,A,A, (3A,A,A, | (3A,A,A, (3A,A,A, (3A,2A,2 A,2 | "Ebmaj7"(3^A,A,A, (3A,A,A, (3A,A,A, (3=CCC | 
(3DDD (3DDD (3GGG (3GGG | "Fmaj7"(3=FFF (3FFF (3=CCC (3CCC | (3=CCC (3CCC C2 {^G}(3AAA | 
"G6"(3GGG (3GGG (3DDD (3DDD | "A7"(3EEE (3EEE (3EEE | "Dmaj7"z2 FE DB, A,B, | 
DE DE FE DE | "Ebmaj7"=FE F6 | z8 | "Dmaj7"cB cB AB AF | (3EFE G,B, ED B,A, | 
"Bb6"=C=F DF G=c Ac | "G7"d=c d^d "A7"z4 | "Dmaj7"e=f ^f=f ed Bd | BE FB AF ED | 
"Ebmaj7"=FF FA2A3 | =cc c=f2f3 | "Fmaj7"e=c Ad c=F Ac | A^G E=F z4 | "G6"Bd BD GB AB | 
"A7"cB AG FE FE | "Bm7"DE DB, A,B, DE | DE FA Bd3 | "C6"{c}d8 | z8 | "Bm7"=f^f ed BA (3dBA | 
FB AF EF ED | "Bb6"d2 A=F z2 d2 | A=F z2 d4 | "Bm7"ag fg ef ed | cd Bc AB AF | 
"C6"GF GB zB z2 | dc d{^d}e z4 | "C#m7"z4 ef ga | z{f}g z"F#7"f (3gfe df | "Em7"ed cB AF "A7"E2 | 
z8 | 
 

